X:173
T:The Curlew (jig)
M:6/8
L:1/8
F:http://blackrosetheband.googlepages.com/ABCTUNES.ABC May 2009
C:Composer: Donald McPherson
S:Source: Angus Sessions Podcast
R:jig
K:D
"D"d3 A2d|BAA dBA|d3 A2d|"A"BAA aef|
"D"d3 A2d|BAA dBA|""g2f efd|"A"cAA aef:|
"D"d3 f2d|"A"aef dBA|"D"d3 f2f|"A"aza edf|
"D"d3 f2d|"A"aef dBA|"G"g2f efd|"A"cAA aef:|
"G"d3 GBA|"A"dBd ecA|"G"d3 GBB|"A"Ace aef|
"G"d3 GBA|"A"dBd ecA|"G"g2f efd|"A"cAA aef:|
"D"d3 a2f|"G"dfd "A"ecA|"D"d3 a2f|"G"dfd "A"afA|
"G"d3 GBA|dBd "A"ecA|"G"g2f efd|"A"cAA aef|
"D"d3 a2f|"G"dfd "A"ecA|"D"d3 a2f|"G"dfd "A"aef|
"G"gfg efd|"A"ABd ecA|"G"g2f efd |"A"cAA aef||
